X:68
T:Spellan's Fiddle
R:hornpipe
Z:id:hn-hornpipe-68
M:C|
K:G
Bc|dg (3fga gdBA|GFGA BGDC|B,DGF EGcB|ADFA d2Bc|
dg (3fga gdBA|GFGA BGDC|B,DGF EGcB|ADFA G2:|
K:D
FG|:ABAF ABde|fgfd cdef|gbag fagf|(3efe (3dcB A2FG|
ABAF ABde|~f3d (3Bcd ef|gf (3efg fedc|1 dfec dAFG:|2 dfec dc||

